X:359
T:Jack Pudding
N:Also used for the dance "Step Stately".  Originally in G minor.
N:For Step Stately play AB repeatedly.  For Jack Pudding play ABB repeatedly.
M:6/8
L:1/8
S:Colin Hume's website,  colinhume.com  - chords can also be printed below the stave.
Q:3/8=120
K:Am
P:A
E | "Am"A2 A "G"B2 G | "F"c A2 "Dm"d2 B | "Am/E"e c2 "E7"B2 A | "Am"A3-A2 E |\
"Am"A2 A "G"B2 G | "F"c A2 "Dm"d2 B | "Am/E"e c2 "E7"B2 A | "Am"A3-A2 ||
P:B
a | "C"g e2 "Dm"f2 d | "C"e c2 "G"d2 B | "F"c A2 "G7"B G2 | "C"c3-c2 c |\
"G"d B2 "E7/G#"e2 B | "E7"^G E2 "Am"c2d | "C"e c2 "E7"d B2 | "Am"A3-A2 |]

